_includes/icons/ios-money-bag.svg

<svg fill="#666" height="50" viewBox="0 0 50 50" width="50" xmlns="http://www.w3.org/2000/svg"><path d="m23.6875 1.03125c-.667969-.019531-1.3125.230469-1.84375.625s-1.007812.914063-1.46875 1.5625c-.351562.496094-.699219.707031-1.3125.84375s-1.46875.125-2.46875.125c-1.117187 0-1.925781.097656-2.59375.34375-.535156.195313-1.023437.578125-1.28125 1.0625-.011719.03125-.023437.0625-.03125.09375-.011719.023438-.023437.039063-.03125.0625-.011719.019531-.023437.042969-.03125.0625-.019531.054688-.050781.101563-.0625.15625-.160156.671875.066406 1.238281.34375 1.6875.273438.441406.636719.820313 1 1.15625.417969.417969 1.304688 1.175781 2.15625 2.53125.769531 1.222656 1.328125 2.886719 1.28125 4.875-3.3125 1.011719-6.476562 3.421875-8.90625 6.5-2.636719 3.339844-4.4375 7.414063-4.4375 11.375 0 4.886719 1.53125 8.367188 5 10.34375 3.46875 1.976563 8.59375 2.5625 16 2.5625s12.53125-.585937 16-2.5625c3.46875-1.976562 5-5.457031 5-10.34375 0-7.5625-5.925781-14.484375-12.75-17.5.480469-.0625.976563-.109375 1.5-.09375 1.683594.042969 3.480469.550781 5.03125 2.1875.234375.300781.621094.445313.996094.367188.371094-.078125.671875-.363282.765625-.734375.09375-.367188-.03125-.761719-.324219-1.007813-1.8125-1.917969-4.007812-2.644531-5.96875-2.78125 1.640625-.6875 3.527344-.894531 5.78125.34375.316406.222656.730469.242188 1.070313.054688.335937-.191407.53125-.558594.503906-.945313s-.277344-.71875-.636719-.859375c-1.40625-.773437-2.742187-1.085937-4-1.09375-2.832031-.015625-5.214844 1.492188-6.78125 2.5625-.226562-3.644531 1.835938-6.550781 2.09375-6.875l.03125-.03125.03125-.0625c.347656-.546875.890625-1.324219 1.125-2.25.117188-.460937.183594-1.070312-.21875-1.625-.402344-.554687-1.082031-.75-1.75-.75-1.25 0-2.378906.425781-3.28125.59375s-1.359375.140625-1.8125-.3125v.03125c-.007812-.007812-.023437.007813-.03125 0-1.300781-1.351562-2.355469-2.242187-3.6875-2.28125zm-.0625 2c.363281.011719 1.152344.417969 2.34375 1.65625h.03125v.03125c1.046875 1.046875 2.472656 1.019531 3.59375.8125.847656-.15625 1.652344-.367187 2.3125-.46875.011719.074219.027344.078125-.0625.21875s-.296875.378906-.625.65625c-.65625.554688-1.75 1.261719-2.90625 2.3125-.472656.433594-1.035156.726563-1.46875.78125-.433594.054688-.683594-.03125-.96875-.375h-.03125c-.507812-.632812-.964844-1.113281-1.5-1.4375-.546875-.332031-1.191406-.5-1.78125-.40625-1.167969.183594-1.910156 1.023438-2.8125 1.875h-.03125v-.03125c-.515625.484375-1.128906.644531-2.0625.25-.789062-.332031-1.761719-1.164062-2.6875-2.53125.34375-.09375.84375-.1875 1.625-.1875 1 0 1.96875.023438 2.90625-.1875.9375-.210937 1.851563-.71875 2.5-1.625h.03125c.390625-.550781.730469-.925781 1-1.125s.414063-.222656.59375-.21875zm-.75 5.78125c.125-.019531.203125-.046875.4375.09375s.566406.453125 1 1v.03125h.03125c.714844.855469 1.785156 1.183594 2.75 1.0625s1.863281-.582031 2.59375-1.25c.105469-.097656.207031-.15625.3125-.25-.671875 1.625-1.203125 3.796875-.78125 6.28125-4.625 2.246094-8.328125 1.058594-9.75.40625.039063-2.039062-.550781-3.789062-1.28125-5.15625 1.078125.105469 2.136719-.183594 2.90625-.90625.890625-.839844 1.53125-1.273437 1.78125-1.3125zm7.375 8.6875c6.914063 2.023438 13.75 9.34375 13.75 16.59375 0 4.511719-1.113281 7-3.96875 8.625s-7.738281 2.28125-15.03125 2.28125-12.175781-.65625-15.03125-2.28125-3.96875-4.113281-3.96875-8.625c0-3.339844 1.585938-7.097656 4-10.15625 2.382813-3.015625 5.554688-5.320312 8.5-6.03125 1.675781.753906 6.300781 2.296875 11.75-.40625zm-6.75 4.5v2c-1.5.199219-4.09375 1.394531-4.09375 4.59375 0 5.800781 8.40625 2.820313 8.40625 7.21875 0 1.5-.707031 2.78125-3.40625 2.78125-2.800781 0-3.59375-2.207031-3.59375-3.40625h-1.8125c.300781 3.898438 3 4.824219 4.5 5.125v1.6875h1.8125v-1.6875c1.398438-.101562 4.59375-1.117187 4.59375-4.71875 0-3-2.414062-3.804687-4.8125-4.40625-1.898437-.5-3.6875-.882812-3.6875-2.78125 0-.800781.300781-2.59375 3-2.59375 1.898438 0 2.792969 1.195313 3.09375 2.59375h1.8125c-.5-2-1.398437-3.8125-4-4.3125v-2.09375z"/></svg>

<svg xmlns="http://www.w3.org/2000/svg" viewBox="0 0 50 50" width="50" height="50" fill="#666"><path d="M 23.6875 1.03125 C 23.019531 1.011719 22.375 1.261719 21.84375 1.65625 C 21.3125 2.050781 20.835938 2.570313 20.375 3.21875 C 20.023438 3.714844 19.675781 3.925781 19.0625 4.0625 C 18.449219 4.199219 17.59375 4.1875 16.59375 4.1875 C 15.476563 4.1875 14.667969 4.285156 14 4.53125 C 13.464844 4.726563 12.976563 5.109375 12.71875 5.59375 C 12.707031 5.625 12.695313 5.65625 12.6875 5.6875 C 12.675781 5.710938 12.664063 5.726563 12.65625 5.75 C 12.644531 5.769531 12.632813 5.792969 12.625 5.8125 C 12.605469 5.867188 12.574219 5.914063 12.5625 5.96875 C 12.402344 6.640625 12.628906 7.207031 12.90625 7.65625 C 13.179688 8.097656 13.542969 8.476563 13.90625 8.8125 C 14.324219 9.230469 15.210938 9.988281 16.0625 11.34375 C 16.832031 12.566406 17.390625 14.230469 17.34375 16.21875 C 14.03125 17.230469 10.867188 19.640625 8.4375 22.71875 C 5.800781 26.058594 4 30.132813 4 34.09375 C 4 38.980469 5.53125 42.460938 9 44.4375 C 12.46875 46.414063 17.59375 47 25 47 C 32.40625 47 37.53125 46.414063 41 44.4375 C 44.46875 42.460938 46 38.980469 46 34.09375 C 46 26.53125 40.074219 19.609375 33.25 16.59375 C 33.730469 16.53125 34.226563 16.484375 34.75 16.5 C 36.433594 16.542969 38.230469 17.050781 39.78125 18.6875 C 40.015625 18.988281 40.402344 19.132813 40.777344 19.054688 C 41.148438 18.976563 41.449219 18.691406 41.542969 18.320313 C 41.636719 17.953125 41.511719 17.558594 41.21875 17.3125 C 39.40625 15.394531 37.210938 14.667969 35.25 14.53125 C 36.890625 13.84375 38.777344 13.636719 41.03125 14.875 C 41.347656 15.097656 41.761719 15.117188 42.101563 14.929688 C 42.4375 14.738281 42.632813 14.371094 42.605469 13.984375 C 42.578125 13.597656 42.328125 13.265625 41.96875 13.125 C 40.5625 12.351563 39.226563 12.039063 37.96875 12.03125 C 35.136719 12.015625 32.753906 13.523438 31.1875 14.59375 C 30.960938 10.949219 33.023438 8.042969 33.28125 7.71875 L 33.3125 7.6875 L 33.34375 7.625 C 33.691406 7.078125 34.234375 6.300781 34.46875 5.375 C 34.585938 4.914063 34.652344 4.304688 34.25 3.75 C 33.847656 3.195313 33.167969 3 32.5 3 C 31.25 3 30.121094 3.425781 29.21875 3.59375 C 28.316406 3.761719 27.859375 3.734375 27.40625 3.28125 L 27.40625 3.3125 C 27.398438 3.304688 27.382813 3.320313 27.375 3.3125 C 26.074219 1.960938 25.019531 1.070313 23.6875 1.03125 Z M 23.625 3.03125 C 23.988281 3.042969 24.777344 3.449219 25.96875 4.6875 L 26 4.6875 L 26 4.71875 C 27.046875 5.765625 28.472656 5.738281 29.59375 5.53125 C 30.441406 5.375 31.246094 5.164063 31.90625 5.0625 C 31.917969 5.136719 31.933594 5.140625 31.84375 5.28125 C 31.753906 5.421875 31.546875 5.660156 31.21875 5.9375 C 30.5625 6.492188 29.46875 7.199219 28.3125 8.25 C 27.839844 8.683594 27.277344 8.976563 26.84375 9.03125 C 26.410156 9.085938 26.160156 9 25.875 8.65625 L 25.84375 8.65625 C 25.335938 8.023438 24.878906 7.542969 24.34375 7.21875 C 23.796875 6.886719 23.152344 6.71875 22.5625 6.8125 C 21.394531 6.996094 20.652344 7.835938 19.75 8.6875 L 19.71875 8.6875 L 19.71875 8.65625 C 19.203125 9.140625 18.589844 9.300781 17.65625 8.90625 C 16.867188 8.574219 15.894531 7.742188 14.96875 6.375 C 15.3125 6.28125 15.8125 6.1875 16.59375 6.1875 C 17.59375 6.1875 18.5625 6.210938 19.5 6 C 20.4375 5.789063 21.351563 5.28125 22 4.375 L 22.03125 4.375 C 22.421875 3.824219 22.761719 3.449219 23.03125 3.25 C 23.300781 3.050781 23.445313 3.027344 23.625 3.03125 Z M 22.875 8.8125 C 23 8.792969 23.078125 8.765625 23.3125 8.90625 C 23.546875 9.046875 23.878906 9.359375 24.3125 9.90625 L 24.3125 9.9375 L 24.34375 9.9375 C 25.058594 10.792969 26.128906 11.121094 27.09375 11 C 28.058594 10.878906 28.957031 10.417969 29.6875 9.75 C 29.792969 9.652344 29.894531 9.59375 30 9.5 C 29.328125 11.125 28.796875 13.296875 29.21875 15.78125 C 24.59375 18.027344 20.890625 16.839844 19.46875 16.1875 C 19.507813 14.148438 18.917969 12.398438 18.1875 11.03125 C 19.265625 11.136719 20.324219 10.847656 21.09375 10.125 C 21.984375 9.285156 22.625 8.851563 22.875 8.8125 Z M 30.25 17.5 C 37.164063 19.523438 44 26.84375 44 34.09375 C 44 38.605469 42.886719 41.09375 40.03125 42.71875 C 37.175781 44.34375 32.292969 45 25 45 C 17.707031 45 12.824219 44.34375 9.96875 42.71875 C 7.113281 41.09375 6 38.605469 6 34.09375 C 6 30.753906 7.585938 26.996094 10 23.9375 C 12.382813 20.921875 15.554688 18.617188 18.5 17.90625 C 20.175781 18.660156 24.800781 20.203125 30.25 17.5 Z M 23.5 22 L 23.5 24 C 22 24.199219 19.40625 25.394531 19.40625 28.59375 C 19.40625 34.394531 27.8125 31.414063 27.8125 35.8125 C 27.8125 37.3125 27.105469 38.59375 24.40625 38.59375 C 21.605469 38.59375 20.8125 36.386719 20.8125 35.1875 L 19 35.1875 C 19.300781 39.085938 22 40.011719 23.5 40.3125 L 23.5 42 L 25.3125 42 L 25.3125 40.3125 C 26.710938 40.210938 29.90625 39.195313 29.90625 35.59375 C 29.90625 32.59375 27.492188 31.789063 25.09375 31.1875 C 23.195313 30.6875 21.40625 30.304688 21.40625 28.40625 C 21.40625 27.605469 21.707031 25.8125 24.40625 25.8125 C 26.304688 25.8125 27.199219 27.007813 27.5 28.40625 L 29.3125 28.40625 C 28.8125 26.40625 27.914063 24.59375 25.3125 24.09375 L 25.3125 22 Z"/></svg>
